X: 18
T: (no words)
N: Derived from ojibwa18.krn
C: Chippewa Songs ~ 1910
O: Red Wing, Minnesota, U.S.A
N: Chippewa Music by Frances Densmore, 1910
Z: transcribed to **kern format by Paul von Hippel and Daniel T. Shanahan
L: 1/8
M: 2/4
Q: 1/4=108
K: A clef=treble
%%linebreak <none>
F,2F2 | 
F2F2 | 
F2F3/ E/ | 
C2C B, | 
G, C C3/ B,/[K:clef=bass] | 
A,4- | 
A,2F,2 | 
[M:3/4]A, A, (3A, A, C C3/ B,/ | 
A,> F, A, F, F,3/ F,/ | 
F,6 |]  



